app/public/dtpr-icons/air.svg

<svg width="36" height="36" viewBox="0 0 36 36" fill="none" xmlns="http://www.w3.org/2000/svg">
<path d="M31.8564 8.8453L19 1.42265C18.3812 1.06538 17.6188 1.06538 17 1.42265L4.14359 8.8453C3.52479 9.20257 3.14359 9.86282 3.14359 10.5774V25.4226C3.14359 26.1372 3.52479 26.7974 4.14359 27.1547L17 34.5774C17.6188 34.9346 18.3812 34.9346 19 34.5774L31.8564 27.1547C32.4752 26.7974 32.8564 26.1372 32.8564 25.4226V10.5774C32.8564 9.86282 32.4752 9.20256 31.8564 8.8453Z" stroke="black" stroke-width="2"/>
<path fill-rule="evenodd" clip-rule="evenodd" d="M10.197 15.0738C9.64383 15.0738 9.19623 14.625 9.19623 14.0742C9.19623 13.521 9.64383 13.0734 10.197 13.0734H22.1982C22.749 13.0734 23.1978 12.6246 23.1978 12.0738C23.1978 11.5218 22.749 11.073 22.1982 11.073C21.6462 11.073 21.1974 10.6254 21.1974 10.0734C21.1974 9.5202 21.6462 9.0726 22.1982 9.0726C22.6026 9.0726 22.9962 9.1518 23.367 9.309C23.7234 9.4602 24.0438 9.6762 24.3198 9.951C24.5946 10.227 24.8118 10.5474 24.963 10.905C25.119 11.2758 25.1982 11.6682 25.1982 12.0738C25.1982 12.477 25.119 12.8706 24.963 13.2414C24.8118 13.599 24.5946 13.9194 24.3198 14.1954C24.0438 14.4702 23.7234 14.6862 23.367 14.8374C22.9962 14.9946 22.6026 15.0738 22.1982 15.0738H10.197Z" fill="black"/>
<path fill-rule="evenodd" clip-rule="evenodd" d="M20.1978 27.075C19.6458 27.075 19.1982 26.6274 19.1982 26.0754C19.1982 25.5234 19.6458 25.0746 20.1978 25.0746C20.7498 25.0746 21.1974 24.6258 21.1974 24.075C21.1974 23.523 20.7498 23.0754 20.1978 23.0754H10.197C9.64383 23.0754 9.19623 22.6266 9.19623 22.0746C9.19623 21.5226 9.64383 21.075 10.197 21.075H20.1978C20.6022 21.075 20.9958 21.153 21.3666 21.3102C21.723 21.4614 22.0446 21.6774 22.3194 21.9534C22.5942 22.2282 22.8114 22.5498 22.9626 22.9062C23.1186 23.277 23.1978 23.6706 23.1978 24.075C23.1978 24.4794 23.1186 24.873 22.9626 25.2426C22.8114 25.6002 22.5942 25.9218 22.3194 26.1966C22.0446 26.4714 21.723 26.6874 21.3666 26.8386C20.9958 26.9958 20.6022 27.075 20.1978 27.075Z" fill="black"/>
<path fill-rule="evenodd" clip-rule="evenodd" d="M25.1982 22.0752C25.1982 21.522 25.6458 21.0744 26.199 21.0744C26.7498 21.0744 27.1986 20.6256 27.1986 20.0748C27.1986 19.5228 26.7498 19.074 26.199 19.074H10.797C10.245 19.074 9.79742 18.6264 9.79742 18.0744C9.79742 17.5224 10.245 17.0736 10.797 17.0736H26.199C26.6034 17.0736 26.9958 17.1528 27.3666 17.31C27.7242 17.4612 28.0446 17.6772 28.3206 17.952C28.5954 18.228 28.8114 18.5484 28.9626 18.906C29.1198 19.2768 29.199 19.6692 29.199 20.0748C29.199 20.4792 29.1198 20.8716 28.9626 21.2424C28.8114 21.6 28.5954 21.9204 28.3206 22.1964C28.0446 22.4712 27.7242 22.6872 27.3666 22.8384C26.9958 22.9956 26.6034 23.0748 26.199 23.0748C25.6458 23.0748 25.1982 22.626 25.1982 22.0752Z" fill="black"/>
</svg>

<svg xmlns="http://www.w3.org/2000/svg" width="36" height="36" fill="none"><path stroke="#000" stroke-width="2" d="M31.856 8.845 19 1.423a2 2 0 0 0-2 0L4.144 8.845a2 2 0 0 0-1 1.732v14.846a2 2 0 0 0 1 1.732L17 34.577a2 2 0 0 0 2 0l12.856-7.422a2 2 0 0 0 1-1.732V10.577a2 2 0 0 0-1-1.732Z"/><path fill="#000" fill-rule="evenodd" d="M10.197 15.074a1 1 0 1 1 0-2h12.001a1.001 1.001 0 0 0 0-2.001 1 1 0 1 1 0-2 2.98 2.98 0 0 1 2.122.878q.415.415.643.954c.156.37.235.763.235 1.169a3 3 0 0 1-3 3zM20.198 27.075a1 1 0 0 1 0-2 1 1 0 0 0 0-2H10.197a1.001 1.001 0 0 1 0-2h10a2.98 2.98 0 0 1 2.122.878c.275.275.492.597.644.953a3 3 0 0 1 .235 1.169 2.99 2.99 0 0 1-1.831 2.764c-.371.157-.765.236-1.17.236" clip-rule="evenodd"/><path fill="#000" fill-rule="evenodd" d="M25.198 22.075a1 1 0 0 1 1.001-1 1.001 1.001 0 0 0 0-2.001H10.797a1 1 0 0 1 0-2h15.402a3.004 3.004 0 0 1 3 3.001 3.004 3.004 0 0 1-3 3 1 1 0 0 1-1-1" clip-rule="evenodd"/></svg>
